X: 30334
T: Old Monaghan Twig, The
R: reel
M: 4/4
K: Amixolydian
|:cA (3Bcd cAGB|Ad(3ddd efed|cA (3Bcd cAag|1 efge dfed:|2 efge d2cd||
eaag efed|cdef g2fg|eaag efge|afge d2cd|
eaag efed|cdef g2fg|ea(3aaa ea(3aaa|gage dfed||

